public/asterisk.svg

<svg width="162" height="170" viewBox="0 0 162 170" fill="none" xmlns="http://www.w3.org/2000/svg">
<path d="M33.3698 102.008L9.22529 125.638L20.8087 150.286L42.4665 152.405L74.2625 121.272L95.6653 166.88L117.344 169L135.729 150.985L116.558 110.125L142.615 112.689L161 94.6747L149.438 70.0268L128.63 67.9922L152.775 44.3616L141.191 19.7137L119.512 17.5944L87.7375 48.7275L66.3348 3.11934L44.6557 1L26.271 19.0144L45.4421 59.854L19.3847 57.3108L1 75.3251L12.5622 99.973L33.3698 102.008Z" fill="black"/>
<path d="M44.6556 1L114.05 148.866" stroke="white" stroke-width="1.5" stroke-linecap="round" stroke-linejoin="round"/>
<path d="M131.096 42.2424L20.8086 150.286" stroke="white" stroke-width="1.5" stroke-linecap="round" stroke-linejoin="round"/>
<path d="M161 94.6745L30.9468 81.9585" stroke="white" stroke-width="1.5" stroke-linecap="round" stroke-linejoin="round"/>
<path d="M135.729 150.986L106.802 89.3765" stroke="white" stroke-width="1.5" stroke-linecap="round" stroke-linejoin="round"/>
<path d="M95.6652 166.88L66.7598 105.271" stroke="white" stroke-width="1.5" stroke-linecap="round" stroke-linejoin="round"/>
<path d="M73.561 62.609L119.512 17.5943" stroke="white" stroke-width="1.5" stroke-linecap="round" stroke-linejoin="round"/>
<path d="M106.802 89.3766L152.774 44.3619" stroke="white" stroke-width="1.5" stroke-linecap="round" stroke-linejoin="round"/>
<path d="M19.3845 57.3109L73.5609 62.6092" stroke="white" stroke-width="1.5" stroke-linecap="round" stroke-linejoin="round"/>
<path d="M12.562 99.9732L66.7597 105.272" stroke="white" stroke-width="1.5" stroke-linecap="round" stroke-linejoin="round"/>
<path d="M87.7377 48.7276L66.335 3.11945" stroke="white" stroke-width="1.5" stroke-linecap="round" stroke-linejoin="round"/>
<path d="M95.6655 166.881L74.2627 121.273" stroke="white" stroke-width="1.5" stroke-linecap="round" stroke-linejoin="round"/>
<path d="M45.4421 59.875L26.271 19.0142" stroke="white" stroke-width="1.5" stroke-linecap="round" stroke-linejoin="round"/>
<path d="M135.729 150.985L116.558 110.125" stroke="white" stroke-width="1.5" stroke-linecap="round" stroke-linejoin="round"/>
<path d="M87.7375 48.7274L119.512 17.5943" stroke="white" stroke-width="1.5" stroke-linecap="round" stroke-linejoin="round"/>
<path d="M42.4663 152.406L74.2623 121.273" stroke="white" stroke-width="1.5" stroke-linecap="round" stroke-linejoin="round"/>
<path d="M9.22534 125.638L33.3699 102.008" stroke="white" stroke-width="1.5" stroke-linecap="round" stroke-linejoin="round"/>
<path d="M128.63 67.9925L152.775 44.3619" stroke="white" stroke-width="1.5" stroke-linecap="round" stroke-linejoin="round"/>
<path d="M30.9467 81.9587L19.3845 57.3109" stroke="white" stroke-width="1.5" stroke-linecap="round" stroke-linejoin="round"/>
<path d="M152.775 44.3616L141.191 19.7137" stroke="white" stroke-width="1.5" stroke-linecap="round" stroke-linejoin="round"/>
<path d="M119.512 17.5943L131.095 42.2422" stroke="white" stroke-width="1.5" stroke-linecap="round" stroke-linejoin="round"/>
<path d="M1 75.325L12.5622 99.9729" stroke="white" stroke-width="1.5" stroke-linecap="round" stroke-linejoin="round"/>
<path d="M149.438 70.027L161 94.6749" stroke="white" stroke-width="1.5" stroke-linecap="round" stroke-linejoin="round"/>
<path d="M20.8088 150.286L9.22534 125.638" stroke="white" stroke-width="1.5" stroke-linecap="round" stroke-linejoin="round"/>
<path d="M19.3845 57.3109L45.4419 59.8753" stroke="white" stroke-width="1.5" stroke-linecap="round" stroke-linejoin="round"/>
<path d="M116.558 110.125L142.615 112.689" stroke="white" stroke-width="1.5" stroke-linecap="round" stroke-linejoin="round"/>
<path d="M117.344 169L135.729 150.985" stroke="white" stroke-width="1.5" stroke-linecap="round" stroke-linejoin="round"/>
<path d="M114.05 148.866L95.6653 166.88" stroke="white" stroke-width="1.5" stroke-linecap="round" stroke-linejoin="round"/>
<path d="M19.3847 57.3109L1 75.3252" stroke="white" stroke-width="1.5" stroke-linecap="round" stroke-linejoin="round"/>
<path d="M12.562 99.9729L30.9467 81.9585" stroke="white" stroke-width="1.5" stroke-linecap="round" stroke-linejoin="round"/>
<path d="M161 94.6746L142.615 112.689" stroke="white" stroke-width="1.5" stroke-linecap="round" stroke-linejoin="round"/>
<path d="M26.2711 19.0144L44.6558 1" stroke="white" stroke-width="1.5" stroke-linecap="round" stroke-linejoin="round"/>
<path d="M42.4664 152.405L20.8086 150.286" stroke="white" stroke-width="1.5" stroke-linecap="round" stroke-linejoin="round"/>
<path d="M95.6653 166.881L117.344 169" stroke="white" stroke-width="1.5" stroke-linecap="round" stroke-linejoin="round"/>
<path d="M44.6556 1L66.3346 3.11934" stroke="white" stroke-width="1.5" stroke-linecap="round" stroke-linejoin="round"/>
<path d="M135.729 150.985L114.05 148.866" stroke="white" stroke-width="1.5" stroke-linecap="round" stroke-linejoin="round"/>
<path d="M141.191 19.7136L119.512 17.5943" stroke="white" stroke-width="1.5" stroke-linecap="round" stroke-linejoin="round"/>
<path d="M131.095 42.2424L152.775 44.3618" stroke="white" stroke-width="1.5" stroke-linecap="round" stroke-linejoin="round"/>
<path d="M12.562 99.9732L33.3697 102.008" stroke="white" stroke-width="1.5" stroke-linecap="round" stroke-linejoin="round"/>
<path d="M128.63 67.9921L149.438 70.0266" stroke="white" stroke-width="1.5" stroke-linecap="round" stroke-linejoin="round"/>
</svg>

<svg xmlns="http://www.w3.org/2000/svg" width="162" height="170" fill="none" xmlns:v="https://vecta.io/nano"><path d="M33.37 102.008l-24.145 23.63 11.583 24.648 21.658 2.119 31.796-31.133 21.403 45.608 21.679 2.12 18.385-18.015-19.171-40.86 26.057 2.564L161 94.675l-11.562-24.648-20.808-2.035 24.145-23.631-11.584-24.648-21.679-2.119-31.775 31.133L66.335 3.119 44.656 1 26.271 19.014l19.171 40.84-26.057-2.543L1 75.325l11.562 24.648 20.808 2.035z" fill="#000"/><g stroke="#fff" stroke-width="1.5" stroke-linecap="round" stroke-linejoin="round"><path d="M44.656 1l69.394 147.866"/><path d="M131.096 42.242L20.809 150.286"/><path d="M161 94.675L30.947 81.959m104.782 69.027l-28.927-61.609M95.665 166.88L66.76 105.271m6.801-42.662l45.951-45.015m-12.71 71.783l45.972-45.015"/><path d="M19.385 57.311l54.176 5.298M12.562 99.973l54.198 5.299m20.978-56.544L66.335 3.119m29.331 163.762l-21.403-45.608"/><path d="M45.442 59.875L26.271 19.014m109.458 131.971l-19.171-40.86m-28.82-61.398l31.775-31.133M42.466 152.406l31.796-31.133m-65.037 4.365l24.145-23.63m95.26-34.015l24.145-23.631"/><path d="M30.947 81.959L19.385 57.311m133.39-12.949l-11.584-24.648m-21.679-2.12l11.583 24.648M1 75.325l11.562 24.648m136.876-29.946L161 94.675M20.809 150.286L9.225 125.638m10.16-68.327l26.057 2.564m71.116 50.25l26.057 2.564M117.344 169l18.385-18.015m-21.679-2.119L95.665 166.88M19.385 57.311L1 75.325m11.562 24.648l18.385-18.014M161 94.675l-18.385 18.014M26.271 19.014L44.656 1m-2.19 151.405l-21.658-2.119m74.857 16.595L117.344 169M44.656 1l21.679 2.119"/><path d="M135.729 150.985l-21.679-2.119m27.141-129.152l-21.679-2.119m11.583 24.647l21.68 2.119M12.562 99.973l20.808 2.035m95.26-34.016l20.808 2.035"/></g></svg>
